X: 32775
T: Pondering
R: jig
M: 6/8
K: Dmajor
F2E|:DFA dce|dcA GAB|FAd EAc|dcA GAB|
DFA dce|dcA GAB|AdB cAG|EDc d3:|
K: Ador
|:A2B cBA|abg edc|BGG dBG|B/c/dc BAG|A2B cBA|
[1 abg edc|Bdg gdB|ABG A3:|2 abg fed|gdB GAB|ABA AFE||

